X:1
T:Sommarens Schlager (Rattvikspolska)
R:polska J
Z:Brian Wilson ....
M:3/4
L:1/8
Q:1/4=108
K:D
|: "D"{A}A3/(c/ d3/)(e/ f3/)a/ | "D"(a<f) "A"(ge) "D"(f2 |  "G"d3/)(d/ c/d/)c/A/ B>G | "G"(G<B) "A"A4 |
|  "D"{A}A3/(c/ d3/)(e/ f3/)a/ | "D"(a<f) "A"(ge) "D"(f2 |  "G"a3/)(a/ g/a/)g/e/ "Em"f>d | "A"(e<c) "D"d4 :|
|: "D"A (f2 d) A>F | "G"G B2 A/G/ "A"A2- |  (3A-AE- (3EF-F G>A | "Em"BA/G/ "A"A4 |
|  "D"A (f2 d) A>F | "G"G B2 A/G/ "A"A2- |  "A/G"A3/ (c/ "D/F#"d3/) (e/ "D"f3/) d/ | "A"(e<c) "D"d4 :|
